X: 1869
T: Terazi Tartayirum
C: Hüseyin Dilâver
O: Turkey
F: http://compmusic.upf.edu/node/140
N: segah--turku--turkaksagi--terazi--macka
N: makam= segah
N: form= turku
N: usul= turkaksagi = 5/8
M: 5/8
L: 1/16
K: C _1/4B _1/4e ^f 
Q: 1/4=252
%%MIDI tuningsystem comma53
B2c2 A4 A2 | G2 c2B4B2  | B2c2 A4 A2 | G2 c2B4z2  | \
w:  ARANAĞME  |   |   |   | 
B2c2 A4 A2 | G2 c2B4B2  | 
w:   |   | 
B2c2 A4 A2 | G2 c2B4z2  | B2c2 A4 A2 | G2 c2B4B2  | \
w:   |   |  ARANAĞME  |   | 
B2c2 A4 A2 | G2 c2B4z2  | 
w:   |   | 
B2c2 A4 A2 | G2 c2B4B2  | B2c2 A4 A2 | G2 c2B4z2  | \
w:   |   |   |   | 
B2c2 d2d4 | d2 e2d4d2  | 
w:  Te ra zi  tar  |  ta yi rum  da    | 
g2f2 e4 d2 | d2 c2B4z2  | B2c2 d2d4 | d2 e2d4d2  | \
w:  A lu rum  da  |  ra si ni    |  Te ra zi  tar  |  ta yi rum  da    | 
g2f2 e4 d2 | d2 c2B4z2  | 
w:  A lu rum  da  |  ra si ni    | 
g2f2 e4 d2 | d2 c2B4B2  | B2c2 A4 A2 | G2 c2B4z2  | \
w:  Yol la  ba ğa   |  bir  men dil  de    |  Ve ru rum  pa  |  ra su ni    | 
g2f2 e4 d2 | d2 c2B4B2  | 
w:  Yol la  ba ğa   |  bir  men dil  de    | 
B2c2 A4 A2 | G2 c2B4z2  | B2c2 A4 A2 | G2 c2B4z2  | \
w:  Ve ru rum  pa  |  ra su ni    |  E  o la sa   |  o la sa    | 
B2c2 A4 A2 | G2 c2B4z2  | 
w:  Bu  sev da luk   |  ol ma sa    | 
B2c2 A4 A2 | G2 c2B4B2  | B2c2 A4 A2 | G2 c2B4z2  | \
w:  Ha çan_ ol du   |  o la cak  ta    |  Se ven  se ve  |  ni  al sa    | 
B2c2 A4 A2 | G2 c2B4B2  | 
w:  Ye ni  çı ka  |  yı  ye ni  da    | 
B2c2 A4 A2 | G2 c2B4z2  | B2c2 A4 A2 | G2 c2B4B2  | \
w:  De re le run   |  or ma ni    |  Sev da lık tan   |  ke sil di  da    | 
B2c2 A4 A2 | G2 c2B4z2  | 
w:  Diz le ri min   |  der ma ni    | 
B2c2 A4 A2 | G2 c2B4B2  | B2c2 A4 A2 | G2 c2B4z2  | \
w:  ARANAĞME  |   |   |   | 
B2c2 A4 A2 | G2 c2B4B2  | 
w:   |   | 
B2c2 A4 A2 | G2 c2B4z2  | B2c2 A4 A2 | G2 c2B4B2  | \
w:   |   |  ARANAĞME  |   | 
B2c2 A4 A2 | G2 c2B4z2  | 
w:   |   | 
B2c2 A4 A2 | G2 c2B4B2  | B2c2 A4 A2 | G2 c2B4z2  | \
w:   |   |   |   | 
B2c2 d2d4 | d2 e2d4d2  | 
w:  Te ra zi  tar  |  ta yi rum  da    | 
g2f2 e4 d2 | d2 c2B4z2  | B2c2 d2d4 | d2 e2d4d2  | \
w:  A lu rum  da  |  ra si ni    |  Te ra zi  tar  |  ta yi rum  da    | 
g2f2 e4 d2 | d2 c2B4z2  | 
w:  A lu rum  da  |  ra si ni    | 
g2f2 e4 d2 | d2 c2B4B2  | B2c2 A4 A2 | G2 c2B4z2  | \
w:  Yol la  ba ğa   |  bir  men dil  de    |  Ve ru rum  pa  |  ra su ni    | 
g2f2 e4 d2 | d2 c2B4B2  | 
w:  Yol la  ba ğa   |  bir  men dil  de    | 
B2c2 A4 A2 | G2 c2B4z2  | B2c2 A4 A2 | G2 c2B4z2  | \
w:  Ve ru rum  pa  |  ra su ni    |  E  o la sa   |  o la sa    | 
B2c2 A4 A2 | G2 c2B4z2  | 
w:  Bu  sev da luk   |  ol ma sa    | 
B2c2 A4 A2 | G2 c2B4B2  | B2c2 A4 A2 | G2 c2B4z2  | \
w:  Ha çan_ ol du   |  o la cak  ta    |  Se ven  se ve  |  ni  al sa    | 
B2c2 A4 A2 | G2 c2B4B2  | 
w:  Ye ni  çı ka  |  yı  ye ni  da    | 
B2c2 A4 A2 | G2 c2B4z2  | B2c2 A4 A2 | G2 c2B4B2  | \
w:  De re le run   |  or ma ni    |  Sev da lık tan   |  ke sil di  da    | 
B2c2 A4 A2 | G2 c2B4z2  | 
w:  Diz le ri min   |  der ma ni    | 
|


